packages/core/src/Assets/SvgComponents/header/why-choose-us.svg

<svg width="24" height="24" viewBox="0 0 24 24" fill="none" xmlns="http://www.w3.org/2000/svg">
<path d="M12 3C16.9706 3 21 7.02944 21 12C21 16.9706 16.9706 21 12 21C7.02944 21 3 16.9706 3 12C3 7.02944 7.02944 3 12 3ZM12 3.72C7.42708 3.72 3.72 7.42708 3.72 12C3.72 16.5729 7.42708 20.28 12 20.28C16.5729 20.28 20.28 16.5729 20.28 12C20.28 7.42708 16.5729 3.72 12 3.72ZM16.9279 8.3044C17.0526 8.42964 17.0661 8.62365 16.9686 8.76374L16.9268 8.81351L10.2956 15.4159C10.1681 15.5429 9.96981 15.5542 9.82963 15.4519L9.78004 15.4082L7.02244 12.4922C6.88583 12.3477 6.89219 12.1198 7.03664 11.9832C7.16505 11.8618 7.35935 11.8533 7.49689 11.9544L7.54556 11.9974L10.0488 14.6446L16.4188 8.30329C16.5597 8.16301 16.7876 8.1635 16.9279 8.3044Z" fill="url(#paint0_linear)"/>
<defs>
<linearGradient id="paint0_linear" x1="3" y1="21" x2="21" y2="3" gradientUnits="userSpaceOnUse">
<stop stop-color="#FF444F"/>
<stop offset="1" stop-color="#FF6444"/>
</linearGradient>
</defs>
</svg>

<svg width="24" height="24" fill="none" xmlns="http://www.w3.org/2000/svg"><path d="M12 3a9 9 0 110 18 9 9 0 010-18zm0 .72a8.28 8.28 0 100 16.56 8.28 8.28 0 000-16.56zm4.928 4.584a.36.36 0 01.04.46l-.041.05-6.631 6.602a.36.36 0 01-.466.036l-.05-.044-2.758-2.916a.36.36 0 01.475-.538l.049.043 2.503 2.648 6.37-6.342a.36.36 0 01.509.001z" fill="url(#paint0_linear)"/><defs><linearGradient id="paint0_linear" x1="3" y1="21" x2="21" y2="3" gradientUnits="userSpaceOnUse"><stop stop-color="#FF444F"/><stop offset="1" stop-color="#FF6444"/></linearGradient></defs></svg>
